X:229
T:Quick Step 37th Reg’t. RH.229
T:37th Reg’t.Quickstep. RH.229
R:quickstep
S:Rev.R.Harrison’s MS,c1815,Cumbria
O:England
A:Temple Sowerby,Cumbria
Z:vmp.Simon Wilson. Review PJH, 2008.
M:6/8
L:1/8
Q:3/8=110
K:D
dgb g2e|f2d ceA|dfa geg|fac d3:|!
|:BdB Ace|dfd cea|\
BdB Afa|gec d3:|!
|:a2f dfa|g2e cAc|BdB Afa|gec d3:|

